X:1
T:Abschiedsgesang
T:Abschiedsgesang
T:Ludwig van Beethoven
T:Jos. Ritter von Seyfried
C:Ludwig van Beethoven
Z:Jos. Ritter von Seyfried
%%score [ 1 2 3 ]
L:1/8
Q:1/4=92
M:4/4
K:Bb
V:1 treble-8 nm="T1"
V:2 treble-8 nm="T2"
V:3 bass nm="B"
V:1
"^Andante ma non troppo" z | z2 z!p! d d2 d2 | d3 d e3 c | c2 B2 d2 c B | A2 B2 c2 d2 | %5
w: |Die Stun- de|schlägt, wir müs- sen|schei- den, bald sucht ver-|ge- bens dich mein|
 (d2 c) c c2 c2 | c3 c =B2 (cd) | d2 c c d2 d2 | c3 c =e2 e2 | f f e4 f2 | d2 z2 z4 | z8 | %12
w: Blick; _ am Bu- sen|länd- lich stil- ler _|Freu- den er- ringst du|dir ein neu- es|Glück, ein neu- es|Glück.||
 z2 g2 g3 f | e2 e2 c2 c2 | c2 B2 B2 B B | B3 B A2"^cresc." ^f2 |!f! g4!p! e2 e e | e2 d2 f3 _A | %18
w: Ge- lieb- ter|Freund! du bleibst uns|theu- er, ging auch die|Rei- se nach dem|Belt; doch ist zum|gu- ten Glück Stadt|
 _A2 G2 z2 z e | e2 e e e2 e2 | F3 F c2 f2 | d4 z F G A | (BA) (Bc) (dc) (de) | f4 f B B B | %24
w: Stey- er, Stadt|Stey- er noch nicht am|En- de die- ser|Welt, doch ist zum|gu- * ten _ Glück _ Stadt _|Stey- er noch nicht am|
 E3 g f2 e2 | (d3 g) f2 e2 | (d3 g) f2 A2 | !fermata!B2 | %28
w: En- de die- ser|Welt, _ die- ser|Welt, _ die- ser|Welt.|
[K:G][M:6/8][Q:1/4=102]"^Lebhaft (doch nicht zu sehr)." z4 | z6 | z6 | z6 | z2 G G F G | %33
w: ||||Und kom- men die|
 A G A D E F | G G B B A B | c B c F G A | B B d d d d | d d d d d d | d d d d c B | d c B e c B | %40
w: Freun- de um dich zu be-|su- chen, und kom- men die|Freun- de um dich zu be-|zu- chen, so sei nur hübsch|freund- lich und back' ih- nen|Ku- chen, auch wer- den, so|wie sich's für Deut- sche ge-|
 A2 A B A B | c B c A G A | B2 d c c d | e e d c c d | e c c B B c | d e d c c d | B B B B A G | %47
w: hört, auf's Wohl- sein der|Gäs- te die Hum- pen ge-|leert. Dann brin- gen wir|froh im ge- zu- cker- ten|Wei- ne ein Gläs- chen dem|e- wi- gen Freund- schafts- ver-|ei- ne, dein Töch- ter- lein|
 d d d d2 d | d6- | d6- | d2 z z2 z | z6 | z2 =f f f f | e d c B B B | c2 e e e e | d c B B c A | %56
w: ma- che den Ga- ny-|med,|_|||ich weiss dass sie|ger- ne da- zu sich ver-|steht, ich weiss dass sie|ger- ne da- zu sich ver-|
 d2 c B c A | d2 c B c A ||[K:Bb][M:4/4][Q:1/4=92]"^Tempo I." G2 z d _e2 e2 | e3 z z4 | %60
w: steht, da- zu sich ver-|steht, da- zu sich ver-|steht. Die Stun- de|schlägt,|
 z2 z d d2 d2 | d3 d e3 c | c2 B2 d2 c B | A2 B2 c2 d2 | (d2 c) c c2 c2 | c3 c =B2 (cd) | %66
w: die Stun- de|schlägt, wir müs- sen|schei- den, bald sucht ver-|ge- bens dich mein|Blick, _ am Bu- sen|länd- lich stil- ler _|
 d2 c c d2 d2 | c3 c =e2 e2 | f f _e4 f2 | d2 z2 z4 | z8 | z2 z e e3 d | (dc) c2 g3 =e | f2 z2 z4 | %74
w: Freu- den er- ringst du|dir ein neu- es|Glück, ein neu- es|Glück.||Ge- lieb- ter|Bru- * der! le- be|wohl,|
 z2 f2 d2 z2 | z4 z2 z e | e3 d (dc) c2 | g3 =e f2 z2 | z4 (FAc) f | d2 d2 d4- | !fermata!d8 |] %81
w: leb' wohl!|Ge-|lieb- ter Bru- * der!|le- be wohl,|le- * * be|wohl, leb' wohl!|_|
V:2
 z | z2 z!p! F F2 F2 | F3 F F3 F | F2 F2 F2 F F | F2 F2 A2 B2 | (B2 A) A G2 F2 | G3 G F2 F2 | %7
w: |Die Stun- de|schlägt, wir müs- sen|schei- den, bald sucht ver-|ge- bens dich mein|Blick; _ am Bu- sen|länd- lich stil- ler|
 F2 =E E ^F2 G2 | =E2 =F2 B2 B2 | A A B4 c2 | B2 z2 z4 | z2 B2 B3 A | G2 B2 B3 _A | G2 B2 _A2 A2 | %14
w: Freu- den er- ringst du|dir ein neu- es|Glück, ein neu- es|Glück.|Ge- lieb- ter|Freund, ge- lieb- ter|Freund! du bleibst uns|
 _A2 G2 G2 G G | G3 G ^F2"^cresc." A2 |!f! B4!p! B2 B B | _A2 A2 A3 F | F2 E2 z B B/ B/ z | %19
w: theu- er, ging auch die|Rei- se nach dem|Belt; doch ist zum|gu- ten Glück Stadt|Stey- er, Stadt Stey- er,|
 z B B/ B/ G G2 E2 | C3 C F2 A2 | B4 z4 | z F G A B A B c | d4 d D E F | E3 e d2 c2 | %25
w: Stadt Stey- er noch nicht am|En- de die- ser|Welt,|doch ist zum gu- ten Glück Stadt|Stey- er noch nicht am|En- de die- ser|
 (B3 e) d2 c2 | (B3 e) d2 c2 | !fermata!B2 |[K:G][M:6/8] z4 | z6 | z2 G G F G | A G A D E F | %32
w: Welt, _ die- ser|Welt, _ die- ser|Welt.|||Und kom- men die|Freun- de um dich zu be-|
 G G B B A B | c B c F G A | B B d d d d | d d d d d d | d d G G F G | c B c F G A | B B B B A G | %39
w: su- chen, und kom- men die|Freun- de um dich zu be-|su- chen, so sei nur hübsch|freund- lich und back' ih- nen|Ku- chen, so sei nur hübsch|freund- lich und back' ih- nen|Ku- chen, auch wer- den, so|
 B A G c A G | F2 F G F G | A G A F E F | G2 G G G G | G G G G G G | G G G G G G | G G G G G A | %46
w: wie sich's für Deut- sche ge-|hört, auf's Wohl- sein der|Gäs- te die Hum- pen ge-|leert. Dann brin- gen wir|froh im ge- zu- cker- ten|Wei- ne ein Gläs- chen dem|e- wi- gen Freund- schafts- ver-|
 G G z z2 z | z6 | z2 c c c c | B A G F F F | G2 z z2 z | z6 | z2 G G A B | c d e =f f f | %54
w: ei- ne,||ich weiss, dass sie|ger- ne da- zu sich ver-|steht,||ich weiss dass sie|ger- ne da- zu sich ver-|
 e2 c c c c | B A G G A F | G2 A G A F | G2 A G A F ||[K:Bb][M:4/4] G2 z _B B2 B2 | A3 F F2 F2 | %60
w: steht, ich weiss dass sie|ger- ne da- zu sich ver-|steht, da- zu sich ver-|steht, da- zu sich ver-|steht. Die Stun- de|schlägt, die Stun- de|
 F3 F F2 F2 | F3 F F3 F | F2 F2 F2 F F | F2 F2 A2 B2 | (B2 A) A G2 F2 | G3 G F2 F2 | %66
w: schlägt, die Stun- de|schlägt, wir müs- sen|schei- den, bald sucht ver-|ge- bens dich mein|Blick, _ am Bu- sen|länd- lich stil- ler|
 F2 =E E ^F2 G2 | =E2 =F2 B2 B2 | A A B4 c2 | B2 z2 z4 | z2 z B B3 _A | (_AG) G B B3 A | %72
w: Freu- den er- ringst du|dir ein neu- es|Glück, ein neu- es|Glück.|Ge- lieb- ter|Bru- * der, ge- lieb- ter|
 (_AG) G2 A3 F | G2 z2 z2 c2 | A2 A2 B2 B2 | B3 _A (AG) G c | c3 B (B=A) A2 | B3 G A2 z2 | %78
w: Bru- * der! le- be|wohl, leb'|wohl, leb' wohl, ge-|lieb- ter Bru- * der! Ge-|lieb- ter Bru- * der!|le- be wohl,|
 z2 c2 A2 A2 | B2 z2 z2 F2 | !fermata!F8 |] %81
w: leb' wohl, leb'|wohl, leb'|wohl!|
V:3
!p!"^dolce" B,, | B,,2 B,,2 B,,3 B,, | B,,3 B,, A,, C, F, E, | E,2 D,2 B,,2 C, D, | %4
w: Die|Stun- de schlägt, die|Stun- de schlägt, wir müs- sen|schei- den, bald sucht ver-|
 E,2 D,2 C,2 B,,2 | F,3 F, =E,2 D,2 | =E,3 E, D,2 (C,=B,,) | (G,C,) C, C, C,2 B,,2 | %8
w: ge- bens dich mein|Blick; am Bu- sen|länd- lich stil- ler _|Freu- * den er- ringst du|
 (B,,2 A,,) A, G,2 G,2 | F, F, G,4 A,2 | B,2 z B, B,3 _A, | G,2 G,2 G,3 F, | E,2 E, E, E,3 E, | %13
w: dir _ ein neu- es|Glück, ein neu- es|Glück. Ge- lieb- ter|Freund! du bleibst uns|theu- er, ge- lieb- ter|
 E,2 G,2 _A,2 D,2 | E,2 E,2 E,2 E, E, | D,3 ^C, D,2"^cresc." D,2 |!f! G,4!p! G,2 G, G, | %17
w: Freund! du bleibst uns|theu- er, ging auch die|Rei- se nach dem|Belt; doch ist zum|
 F,2 F,2 (B,,2 C,) D, | E,2 E, G, G,/ G,/ z z2 | z G, G,/ G,/ E, E,2 C,2 | A,,3 A,, A,2 F,2 | %21
w: gu- ten Glück _ Stadt|Stey- er, Stadt Stey- er,|Stadt Stey- er noch nicht am|En- de die- ser|
 B,4 z4 | z4 z2 z F, | F, F, G, A, B, B,, C, D, | E, E,/ E,/ D, C, F,2 F,2 | (G,3 E,) F,2 F,2 | %26
w: Welt,|doch|ist zum gu- ten Glück Stadt Stey- er|noch nicht am En- de die- ser|Welt, _ die- ser|
 (G,3 E,) F,2 F,2 | !fermata!B,,2 |[K:G][M:6/8] G, G, F, G, | A, G, A, D, E, F, | %30
w: Welt, _ die- ser|Welt.|Und kom- men die|Freun- de um dick zu be-|
 G, G, B, B, A, B, | C B, C F, G, A, | B, B, D D D D | D D D D D D | D D G, G, F, G, | %35
w: su- chen, und kom- men die|Freun- de um dich zu be-|su- chen, so sei nur hübsch|freund- lich und back' ih- nen|Ku- chen, und kom- men die|
 A, G, A, D, E, F, | G, G, B, B, A, B, | A, G, A, D, E, F, | G, G, G, G, G, G, | %39
w: Freun- de um dich zu be-|su- chen, so sei nur hübsch|freund- lich und back' ih- nen|Ku- chen, auch wer- den, so|
 G, G, G, C, C, C, | D,2 D, D, D, D, | D, D, D, D D, D, | G,2 =F, E, E, D, | C, C, D, E, E, D, | %44
w: wie sich's für Deut- sche ge-|hört, auf's Wohl- sein der|Gäs- te die Hum- pen ge-|leert. Dann brin- gen wir|froh im ge- zu- cker- ten|
 C, C, E, D, D, C, | B,, C, D, E, E, =F, | G, G, z z2 z | z6 | z2 D, D, E, F, | G, A, B, C C C | %50
w: Wei- ne ein Gläs- chen dem|e- wi- gen Freund- schafts- ver-|ei- ne,||ich weiss, dass sie|ger- ne da- zu sich ver-|
 B,2 E, E, D, C, | G, G, G, G,2 G, | G,6- | G,6- | G,2 C C C, C, | D, D, D, D, D, C, | %56
w: steht, dein Töch- ter- lein|ma- che den Ga- ny-|med,|_|* ich weiss dass sie|ger- ne da- zu sich ver-|
 B,,2 C, D, D, C, | B,,2 C, D, D, D, ||[K:Bb][M:4/4] G,2 z G, G,2 G,2 | F,3 z z2 z B,, | %60
w: steht, da- zu sich ver-|steht, da- zu sich ver-|steht. Die Stun- de|schlägt, die|
 B,,2 B,,2 B,,3 B,, | B,,3 B,, A,, C, F, E, | E,2 D,2 B,,2 C, D, | E,2 D,2 C,2 B,,2 | %64
w: Stun- de schlägt, die|Stun- de schlägt, wir müs- sen|schei- den, bald sucht ver-|ge- bens dich mein|
 F,3 F, =E,2 D,2 | =E,3 E, D,2 (C,=B,,) | (G,C,) C, C, C,2 _B,,2 | (B,,2 A,,) A, G,2 G,2 | %68
w: Blick, am Bu- sen|länd- lich stil- ler _|Freu- * den er- ringst du|dir _ ein neu- es|
 F, F, G,4 A,2 | B,2 z B, B,3 _A, | (_A,G,) G,2 G,3 F, | F,2 E, E, E,3 =E, | %72
w: Glück, ein neu- es|Glück. Ge- lieb- ter|Bru- * der! le- be|wohl, _ ge- lieb- ter|
 (=E,F,) F,2 (C,E,G,) C | F,2 A,2 F,4- | F,2 F,2 B,,2 G,2 | G,3 F, (F,E,) E, E, | %76
w: Bru- * der! le- * * be|wohl, leb' wohl,|_ leb' wohl, ge-|lieb- ter Bru- * der! Ge-|
 E,3 =E, (E,F,) F,2 | (C,=E,G,) C F,2 A,2 | F,6 F,2 | B,,8- | B,,2 B,,2 !fermata!B,,4 |] %81
w: lieb- ter Bru- * der!|le- * * be wohl, leb'|wohl, keb'|wohl,|_ leb' wohl!|

